X:1
T:Jesus Christus, unser Heiland
T:Balthasar Resinarius
T:Source : DDT 34---Leipzig---Breitkopf & Härtel---J.Wolf---1908. First print : Newe Deudsche Geistliche Gesenge---Wittemberg---G.Rhau---1544. Editor : André Vierendeels (21/07/17).
T:Notes : Original clefs : G2, C3, C3, F3 Original note values have been halved Editorial accidentals above the staff 
T:Jesus Christus, unser Heiland, der den Tod
T:©
T:©
C:Balthasar Resinarius
Z:©
%%score [ 1 2 3 4 ]
L:1/8
Q:1/4=120
M:2/2
K:C
V:1 treble nm="Soprano" snm="S"
V:2 treble nm="Alto" snm="A"
V:3 treble-8 nm="Tenor" snm="T"
V:4 bass nm="Bass" snm="B"
V:1
 d2 d2 d2 d2 | e3 d c3 B | A4 z4 | z8 | c4 d4 | e2 d3 B c2 | d4 z4 | z8 | z2 d4 c2 | dcBA B4 | %10
w: Je- sus Chri- stus,|un- ser Hei- *|land,||der den|Tod ü- * ber-|wand,||ist auf|er- * * * *|
 A6 B2 | c4 d2 B2 | c2 d4 c2 | d8 | d2 d2 d2 d2 | e3 d c3 B | A4 z4 | z8 | c4 d4 | e2 d4 c2 | %20
w: stan- *|||den.|Die Sünd hat er|ge- * fan- *|gen.||Ky- ri-|e, e- lei-|
 d4 z4 | z2 f2 e4 | f2 d3 ccB | d8- | d8- | d8 |] %26
w: son,|Ky- ri-|e, e- lei- * *|son.|_||
V:2
 z4 G2 G2 | G2 G2 A3 G | F3 E D4 | z8 | F4 F3 E | C2 D2 E4 | D4 z4 | z8 | F3 G A4 | F4 G4 | %10
w: Je- sus|Chri- stus un- ser|Hei- * land,||der den _|Tod ü- ber-|wand,||ist _ auf-|er- stan-|
 C6 B,2 | A,8 | z4 A,3 G, | A,2 B,4 A,2 | B,2 G,2 G2 G2 | G2 G2 A3 G | F3 E D4 | z8 | F4 F3 E | %19
w: |den,|ist _|auf- * er-|stan- den. Die Sünd|hat er ge- *|fan- * gen.||Ky- ri- e,|
 C2 D2 E4 | D4 z4 | z2 A,2 A,2 G,2 | A,4 A,3 G, | A,2 _B,4 A,2 | _B,8 | A,8 |] %26
w: e- lei- *|son,|Ky- ri- e|e- lei- *|||son.|
V:3
 z8 | z8 | d2 d2 d2 d2 | e3 d c3 B | A8 | z8 | d4 c2 d2 | e2 d4 c2 | d4 e4 | d8 | f8 | e4 d4 | e8 | %13
w: ||Je- sus Chri- stus|un- ser Hei- *|land,||der den Tod|ü- * *|* ber-|wand,|ist|auf- er|stan-|
 d8- | d8 | z8 | d2 d2 d2 d2 | e3 d c3 B | A8 | z8 | d4 c2 d2 | e2 d4 c2 | d4 e4 | d8- | d8- | %25
w: den.|||Die Sünd hat er|ge- * fan- *|gen.||Ky- ri- e,|e- lei- *||son.|_|
 d8 |] %26
w: |
V:4
 z8 | z8 | z4 G,2 G,2 | G,2 G,2 A,3 G, | F,3 E, D,4 | z8 | G,3 F, E,2 D,2 | C,2 D,2 E,4 | %8
w: ||Je- sus|Chri- stus un- ser|Hei- * land,||der _ _ den|Tod ü- *|
 D,4 A,,4 | D,4 G,4 | F,6 G,2 | A,4 D,4 | A,8 | D,2 G,4 F,2 | G,8 | z8 | z4 G,2 G,2 | %17
w: * ber-|wand, ist|ist _|auf- er-|stan-||den.||Die Sünd|
 G,2 G,2 A,3 G, | F,3 E, D,4 | z8 | G,3 F, E,2 D,2 | C,2 D,2 E,4 | D,4 A,,4 | D,2 G,4 F,2 | G,8 | %25
w: hat er ge- *|fan- * gen.||Ky- ri- e, e|lei- * *|son, Ky-|ri- e e-|lei-|
 D,8 |] %26
w: son.|

